src/assets/icons/NodeTypes/Image.svg

<svg class="svg" xmlns="http://www.w3.org/2000/svg" width="16" height="16" viewBox="0 0 16 16">
    <path fill="#000" fill-opacity="1" fill-rule="evenodd" stroke="none"
        d="M12 6c0 1.105-.895 2-2 2-1.105 0-2-.895-2-2 0-1.105.895-2 2-2 1.105 0 2 .895 2 2zm-1 0c0 .552-.448 1-1 1-.552 0-1-.448-1-1 0-.552.448-1 1-1 .552 0 1 .448 1 1zM3 2c-.552 0-1 .448-1 1v10c0 .552.448 1 1 1h10c.552 0 1-.448 1-1V3c0-.552-.448-1-1-1H3zm10 1H3v6.293l2.5-2.5L11.707 13H13V3zM3 13v-2.293l2.5-2.5L10.293 13H3z">
    </path>
</svg>

<svg width="16" height="16" viewBox="0 0 16 16" fill="none" xmlns="http://www.w3.org/2000/svg">
<path fill-rule="evenodd" clip-rule="evenodd" d="M12 6C12 7.105 11.105 8 10 8C8.895 8 8 7.105 8 6C8 4.895 8.895 4 10 4C11.105 4 12 4.895 12 6ZM11 6C11 6.552 10.552 7 10 7C9.448 7 9 6.552 9 6C9 5.448 9.448 5 10 5C10.552 5 11 5.448 11 6ZM3 2C2.448 2 2 2.448 2 3V13C2 13.552 2.448 14 3 14H13C13.552 14 14 13.552 14 13V3C14 2.448 13.552 2 13 2H3ZM13 3H3V9.293L5.5 6.793L11.707 13H13V3ZM3 13V10.707L5.5 8.207L10.293 13H3Z" fill="black"/>
</svg>
